X: 145
T:Blue Snausages
M:4/4
L:1/8
C:Badly-remembered version of Cliff Stapleton's Bluesassis
R:Schottische
Z:Steve Mansfield
K:Dm
D2DE FEFG | AGAB A2AB | cBcd c2e2 | f4e4 | D2DE FEFG |
AGAB A2AB | c2Bc d2e2 | d4 d4 :: dfAd f3f | e2d2 cdec | dfAd f3f |
e2d2 A4 | dfAd f3f | e2d2 cdec | d2 AB ABA2 | FGFE F2D2:|

